Hatter-kde/status/24/night-light-disabled-20-symbolic.svg

<?xml version="1.0" encoding="UTF-8" standalone="no"?>
<svg
   xmlns:dc="http://purl.org/dc/elements/1.1/"
   xmlns:cc="http://creativecommons.org/ns#"
   xmlns:rdf="http://www.w3.org/1999/02/22-rdf-syntax-ns#"
   xmlns:svg="http://www.w3.org/2000/svg"
   xmlns="http://www.w3.org/2000/svg"
   version="1.1"
   width="24"
   height="24"
   id="svg4031">
  <defs
     id="defs4033" />
  <metadata
     id="metadata4036">
    <rdf:RDF>
      <cc:Work
         rdf:about="">
        <dc:format>image/svg+xml</dc:format>
        <dc:type
           rdf:resource="http://purl.org/dc/dcmitype/StillImage" />
        <dc:title></dc:title>
      </cc:Work>
    </rdf:RDF>
  </metadata>
  <path
     id="path28"
     d="M 11.25 3 C 11.111929 3 11 3.1119288 11 3.25 L 11 4.75 C 11 4.889 11.112 5 11.25 5 L 11.75 5 C 11.888071 5 12 4.8880712 12 4.75 L 12 3.25 C 12 3.1119288 11.888071 3 11.75 3 L 11.25 3 z M 5.3535156 5.2363281 L 4.4121094 6.1777344 L 7.1113281 8.8769531 L 8.0527344 7.9355469 L 5.3535156 5.2363281 z M 17.861328 5.53125 C 17.852828 5.5314693 17.844368 5.5321243 17.835938 5.5332031 C 17.779708 5.5397831 17.727369 5.5652658 17.6875 5.6054688 L 16.626953 6.3636360156 C 16.528663 6.7643036 16.529373 6.9219506 16.626953 7.0195312 L 16.980469 7.3730469 C 17.078099 7.4706519 17.236357 7.4706519 17.333984 7.3730469 L 18.394531 6.3125 C 18.492141 6.214873 18.492141 6.0566111 18.394531 5.9589844 L 18.041016 5.6054688 C 17.993586 5.5574994 17.928784 5.5307335 17.861328 5.53125 z M 11.5 7 C 8.465286 7 6 9.4652894 6 12.5 C 6 15.534712 8.465286 18 11.5 18 C 14.534708 18 17.000006 15.534712 17 12.5 C 17 9.4652894 14.534708 7 11.5 7 z M 11.400391 8.0625 L 11.402344 8.0625 C 11.430334 8.0622361 11.458338 8.0622361 11.486328 8.0625 L 11.492188 8.0625 C 10.556173 8.7617556 10.004053 9.8609323 10.001953 11.029297 C 10.000153 13.080167 11.66202 14.743781 13.712891 14.744141 C 14.37713 14.742241 15.028697 14.56218 15.599609 14.222656 C 14.242997 17.491895 9.8002324 17.947991 7.8066406 15.023438 C 5.8129668 12.098885 7.8615053 8.1303938 11.400391 8.0625 z M 2.25 12 C 2.1119288 12 2 12.111929 2 12.25 L 2 12.75 C 2 12.889 2.112 13 2.25 13 L 3.75 13 C 3.8880712 13 4 12.888071 4 12.75 L 4 12.25 C 4 12.111929 3.8880712 12 3.75 12 L 2.25 12 z M 19.25 12 C 19.111929 12 19 12.111929 19 12.25 L 19 12.75 C 19 12.889 19.112 13 19.25 13 L 20.75 13 C 20.888071 13 21 12.888071 21 12.75 L 21 12.25 C 21 12.111929 20.888071 12 20.75 12 L 19.25 12 z M 5.8398438 17.552734 C 5.7744207 17.553734 5.7120133 17.580413 5.3636360156 17.626953 L 4.6054688 18.6875 C 4.5071807 18.78579 4.5078878 18.943435 4.6054688 19.041016 L 4.9589844 19.394531 C 5.0566114 19.492141 5.2148733 19.492141 5.3125 19.394531 L 6.3730469 18.333984 C 6.4706519 18.236354 6.4706519 18.078096 6.3730469 17.980469 L 6.0195312 17.626953 C 5.9721022 17.578983 5.9072999 17.552214 5.8398438 17.552734 z M 17.152344 17.552734 C 17.087604 17.554234 17.025985 17.580883 16.980469 17.626953 L 16.626953 17.980469 C 16.528663 18.078759 16.529373 18.236403 16.626953 18.333984 L 17.6875 19.394531 C 17.78513 19.492141 17.943389 19.492141 18.041016 19.394531 L 18.394531 19.041016 C 18.492141 18.943386 18.492141 18.785127 18.394531 18.6875 L 17.333984 17.626953 C 17.286084 17.578493 17.220475 17.551684 17.152344 17.552734 z M 11.25 20 C 11.111929 20 11 20.111929 11 20.25 L 11 21.75 C 11 21.889 11.112 22 11.25 22 L 11.75 22 C 11.888071 22 12 21.888071 12 21.75 L 12 20.25 C 12 20.111929 11.888071 20 11.75 20 L 11.25 20 z "
     style="color:#000000;display:inline;overflow:visible;visibility:visible;opacity:1;vector-effect:none;fill:#f2f2f2;fill-opacity:1;fill-rule:nonzero;stroke:none;stroke-width:1;stroke-linecap:butt;stroke-linejoin:miter;stroke-miterlimit:4;stroke-dasharray:none;stroke-dashoffset:0;stroke-opacity:1;marker:none;enable-background:accumulate" />
</svg>

<?xml version="1.0" encoding="UTF-8"?>
<svg id="svg4031" width="24" height="24" version="1.1" xmlns="http://www.w3.org/2000/svg" xmlns:cc="http://creativecommons.org/ns#" xmlns:dc="http://purl.org/dc/elements/1.1/" xmlns:rdf="http://www.w3.org/1999/02/22-rdf-syntax-ns#">
 <metadata id="metadata4036">
  <rdf:RDF>
   <cc:Work rdf:about="">
    <dc:format>image/svg+xml</dc:format>
    <dc:type rdf:resource="http://purl.org/dc/dcmitype/StillImage"/>
    <dc:title/>
   </cc:Work>
  </rdf:RDF>
 </metadata>
 <path id="path28" d="m11.25 3c-0.13807 0-0.25 0.11193-0.25 0.25v1.5c0 0.139 0.112 0.25 0.25 0.25h0.5c0.13807 0 0.25-0.11193 0.25-0.25v-1.5c0-0.13807-0.11193-0.25-0.25-0.25h-0.5zm-5.8965 2.2363-0.94141 0.94141 2.6992 2.6992 0.94141-0.94141-2.6992-2.6992zm12.508 0.29492c-0.0085 2.193e-4 -0.01696 8.743e-4 -0.02539 0.0019531-0.05623 0.00658-0.10857 0.032063-0.14844 0.072266l-1.0605 0.75817c-0.09829 0.40067-0.09758 0.55831 0 0.6559l0.35352 0.35352c0.09763 0.097605 0.25589 0.097605 0.35352 0l1.0605-1.0605c0.09761-0.097627 0.09761-0.25589 0-0.35352l-0.35352-0.35352c-0.04743-0.047969-0.11223-0.074735-0.17969-0.074219zm-6.3613 1.4688c-3.0347 0-5.5 2.4653-5.5 5.5 0 3.0347 2.4653 5.5 5.5 5.5 3.0347 0 5.5-2.4653 5.5-5.5 0-3.0347-2.4653-5.5-5.5-5.5zm-0.099609 1.0625h0.001953c0.02799-2.639e-4 0.055994-2.639e-4 0.083984 0h0.00586c-0.93602 0.69926-1.4881 1.7984-1.4902 2.9668-0.0018 2.0509 1.6601 3.7145 3.7109 3.7148 0.66424-0.0019 1.3158-0.18196 1.8867-0.52148-1.3566 3.2692-5.7994 3.7253-7.793 0.80078-1.9937-2.9246 0.054865-6.893 3.5938-6.9609zm-9.1504 3.9375c-0.13807 0-0.25 0.11193-0.25 0.25v0.5c0 0.139 0.112 0.25 0.25 0.25h1.5c0.13807 0 0.25-0.11193 0.25-0.25v-0.5c0-0.13807-0.11193-0.25-0.25-0.25h-1.5zm17 0c-0.13807 0-0.25 0.11193-0.25 0.25v0.5c0 0.139 0.112 0.25 0.25 0.25h1.5c0.13807 0 0.25-0.11193 0.25-0.25v-0.5c0-0.13807-0.11193-0.25-0.25-0.25h-1.5zm-13.41 5.5527c-0.065423 1e-3 -0.12783 0.027679-0.47621 0.074219l-0.75817 1.0605c-0.098288 0.09829-0.097581 0.25594 0 0.35352l0.35352 0.35352c0.097627 0.09761 0.25589 0.09761 0.35352 0l1.0605-1.0605c0.097605-0.09763 0.097605-0.25589 0-0.35352l-0.35352-0.35352c-0.047429-0.04797-0.11223-0.074739-0.17969-0.074219zm11.313 0c-0.06474 0.0015-0.12636 0.028149-0.17188 0.074219l-0.35352 0.35352c-0.09829 0.09829-0.09758 0.25593 0 0.35352l1.0605 1.0605c0.09763 0.09761 0.25589 0.09761 0.35352 0l0.35352-0.35352c0.09761-0.09763 0.09761-0.25589 0-0.35352l-1.0605-1.0605c-0.0479-0.04846-0.11351-0.075269-0.18164-0.074219zm-5.9023 2.4473c-0.13807 0-0.25 0.11193-0.25 0.25v1.5c0 0.139 0.112 0.25 0.25 0.25h0.5c0.13807 0 0.25-0.11193 0.25-0.25v-1.5c0-0.13807-0.11193-0.25-0.25-0.25h-0.5z" color="#000000" fill="#fff"/>
</svg>
